www/assets/icons/no_luggage.svg

<svg width="24" height="24" viewBox="0 0 24 24" xmlns="http://www.w3.org/2000/svg" fill='currentColor'><path d="M13.46 8.69482V9.61482L15.21 11.3648V8.69482H16.71V12.8648L19.71 15.8648V7.69482C19.71 6.59482 18.81 5.69482 17.71 5.69482H15.71V2.69482C15.71 2.14482 15.26 1.69482 14.71 1.69482H10.71C10.16 1.69482 9.70998 2.14482 9.70998 2.69482V5.69482H9.53998L12.54 8.69482H13.46ZM11.21 3.19482H14.21V5.69482H11.21V3.19482ZM21.9 20.8848L3.51998 2.50482L2.09998 3.91482L5.72998 7.54482C5.72998 7.59482 5.70998 7.64482 5.70998 7.69482V18.6948C5.70998 19.7948 6.60998 20.6948 7.70998 20.6948C7.70998 21.2448 8.15998 21.6948 8.70998 21.6948C9.25998 21.6948 9.70998 21.2448 9.70998 20.6948H15.71C15.71 21.2448 16.16 21.6948 16.71 21.6948C17.26 21.6948 17.71 21.2448 17.71 20.6948C18.05 20.6948 18.36 20.6048 18.64 20.4548L20.49 22.3048L21.9 20.8848ZM8.70998 17.6948V10.5248L10.21 12.0248V17.6948H8.70998ZM13.46 17.6948H11.96V13.7748L13.46 15.2748V17.6948Z"/></svg>

<svg xmlns="http://www.w3.org/2000/svg" width="24" height="24" viewBox="0 0 24 24" fill='currentColor'><path d="M13.46 8.695v.92l1.75 1.75v-2.67h1.5v4.17l3 3v-8.17c0-1.1-.9-2-2-2h-2v-3c0-.55-.45-1-1-1h-4c-.55 0-1 .45-1 1v3h-.17l3 3zm-2.25-5.5h3v2.5h-3zm10.69 17.69L3.52 2.505 2.1 3.915l3.63 3.63c0 .05-.02.1-.02.15v11c0 1.1.9 2 2 2 0 .55.45 1 1 1s1-.45 1-1h6c0 .55.45 1 1 1s1-.45 1-1c.34 0 .65-.09.93-.24l1.85 1.85zm-13.19-3.19v-7.17l1.5 1.5v5.67zm4.75 0h-1.5v-3.92l1.5 1.5z"/></svg>
